X:39
M:4/4
L:1/4
K:G
B G A d | B G A2 | G G G G | A B A2 | G4 | B G A d | B G A2 | G G G G | A B A2 | G4 | D D E F | G A F D | !sintro!G G A B | c B A2 | G4 !eintro!|]
